Assets/Test.cube
TITLE "Generated by Resolve"
LUT_3D_SIZE 5
0 0 0
0.0803082 0.0143587 0.0484169
0.211078 0.0482795 0.147738
0.41146 0.130709 0.253147
0.676936 0.285985 0.33666
0 0.106783 0.124392
0.0804913 0.122438 0.158267
0.246098 0.167742 0.219364
0.481132 0.255344 0.284993
0.646677 0.431632 0.368215
0.0562753 0.337774 0.240726
0.18114 0.362585 0.25478
0.324636 0.426291 0.290776
0.400793 0.541924 0.359564
0.320424 0.70161 0.461555
0 0.740063 0.392401
0 0.764477 0.412482
0 0.816403 0.455039
0 0.8907 0.516487
0 0.97528 0.590677
0 1 0.601801
0 1 0.61387
0 1 0.640452
0 1 0.681193
0 1 0.732723
0 0.0134127 0.164523
0.078645 0.0250553 0.207691
0.217166 0.0581521 0.278157
0.426535 0.139132 0.364477
0.677592 0.295064 0.438483
0 0.117815 0.255238
0.0844434 0.134371 0.282124
0.257176 0.178393 0.331853
0.490608 0.263569 0.387915
0.638575 0.439811 0.467964
0.0679637 0.347524 0.340627
0.184649 0.372122 0.354681
0.318196 0.435096 0.390921
0.381994 0.549523 0.458106
0.289601 0.706249 0.553903
0 0.746044 0.486671
0 0.769879 0.50544
0 0.82063 0.545037
0 0.893538 0.601923
0 0.976684 0.669963
0 1 0.677089
0 1 0.688243
0 1 0.71284
0 1 0.75053
0 1 0.79826
0 0.0504311 0.34757
0.0680095 0.0623331 0.379934
0.233356 0.102785 0.46041
0.459495 0.172747 0.533745
0.669093 0.328634 0.601251
0 0.157305 0.433417
0.0892805 0.173556 0.457923
0.280491 0.213474 0.500481
0.500557 0.295354 0.549447
0.608484 0.467658 0.630915
0.0608835 0.377646 0.496132
0.168307 0.401938 0.511742
0.284215 0.46273 0.5505
0.316289 0.573571 0.620066
0.186481 0.721355 0.711147
0 0.763485 0.645197
0 0.78584 0.662852
0 0.833722 0.699779
0 0.902876 0.752071
0 0.982406 0.813535
0 1 0.815503
0 1 0.825559
0 1 0.847669
0 1 0.881559
0 1 0.924346
0 0.129763 0.575723
0.0547036 0.148043 0.625086
0.263844 0.182559 0.691539
0.48603 0.243442 0.736248
0.627008 0.396277 0.796902
0 0.230289 0.659739
0.0987564 0.244038 0.676829
0.307683 0.277501 0.702678
0.480125 0.360555 0.74313
0.526177 0.523705 0.827466
0 0.435233 0.686198
0.0309758 0.458366 0.702617
0.146334 0.516442 0.743587
0.0751507 0.621012 0.815808
0 0.75201 0.899855
0 0.796551 0.835935
0 0.81651 0.852338
0 0.859648 0.886702
0 0.922469 0.935073
0 0.996338 0.991485
0 1 0.989303
0 1 0.998535
0 1 1
0 1 1
0 1 1
0 0.253712 0.909056
0.0110628 0.265782 0.930358
0.252964 0.292332 0.950256
0.436454 0.352773 0.958602
0.502571 0.494499 1
0 0.330999 0.915618
0.00416571 0.342733 0.919615
0.238132 0.375616 0.926528
0.368521 0.456657 0.960266
0.33753 0.60238 1
0 0.518944 0.902907
0 0.541176 0.919875
0 0.595956 0.961868
0 0.687373 1
0 0.797848 1
0 0.844297 1
0 0.861433 1
0 0.898665 1
0 0.953384 1
0 1 1
0 1 1
0 1 1
0 1 1
0 1 1
0 1 1
