Assets/Test.cube
TITLE "Generated by Resolve"
LUT_3D_SIZE 33
0 0 0
0.00746166 0.00123598 0.00347906
0.0142519 0.00254826 0.00859083
0.0214542 0.00383001 0.0129397
0.0299535 0.00535592 0.0180667
0.0400549 0.00715648 0.024155
0.0517891 0.00926223 0.03122
0.0651865 0.0116579 0.0393072
0.0803082 0.0143587 0.0484169
0.0966354 0.0173648 0.0585794
0.112734 0.0207065 0.0698253
0.128817 0.0243687 0.082414
0.144915 0.0283513 0.0952316
0.161013 0.0326696 0.108049
0.177096 0.0373388 0.120851
0.193439 0.0424201 0.133867
0.211078 0.0482795 0.147738
0.230243 0.0550546 0.161685
0.250996 0.0628367 0.175479
0.273381 0.0717479 0.18909
0.297429 0.0821546 0.202502
0.323201 0.0932784 0.215656
0.350759 0.105074 0.228519
0.380133 0.11754 0.241032
0.41146 0.130709 0.253147
0.444785 0.144686 0.264805
0.480232 0.159426 0.275914
0.517388 0.174823 0.286107
0.555093 0.19118 0.295262
0.59057 0.210498 0.30486
0.623163 0.233021 0.315175
0.652018 0.258366 0.325811
0.676936 0.285985 0.33666
0 0.00961318 0.0116732
0.00675975 0.0109255 0.016022
0.013901 0.0122225 0.0203555
0.0211032 0.0135195 0.0247044
0.0296178 0.0150607 0.0298619
0.0397192 0.0168765 0.0359503
0.0514382 0.0189822 0.0430304
0.0648661 0.0213779 0.0511177
0.0799878 0.024094 0.0602426
0.0963607 0.0271 0.0704204
0.11249 0.0304417 0.0819104
0.128603 0.0341039 0.0937514
0.144701 0.0381018 0.105714
0.1608 0.0424353 0.117784
0.177005 0.0471046 0.130007
0.19411 0.0525521 0.143008
0.212589 0.0588235 0.156298
0.232547 0.0660716 0.169512
0.254002 0.0743725 0.182666
0.276982 0.084123 0.195666
0.301595 0.0944228 0.208499
0.327871 0.105425 0.221118
0.355917 0.117067 0.233478
0.385763 0.129458 0.245487
0.417487 0.142596 0.257115
0.45127 0.156497 0.268299
0.487007 0.171267 0.278889
0.524254 0.18645 0.288396
0.560952 0.203387 0.297429
0.595041 0.223438 0.307134
0.626169 0.246433 0.317479
0.653574 0.271916 0.328054
0.67686 0.299718 0.33904
0 0.0192569 0.0233158
0.00637827 0.0205844 0.0276799
0.0135348 0.0218814 0.0320287
0.020737 0.0231937 0.036408
0.0292515 0.0247349 0.0415656
0.039353 0.026566 0.0476844
0.0510872 0.028687 0.0547799
0.0645151 0.0310979 0.0628824
0.0796368 0.0337987 0.0720226
0.0960555 0.0368353 0.0824445
0.1122 0.040177 0.0932479
0.128328 0.0438544 0.10428
0.144457 0.0478523 0.115541
0.160601 0.0521859 0.126986
0.177401 0.0571298 0.139132
0.195331 0.0629587 0.151675
0.214603 0.0697032 0.164279
0.235218 0.0774853 0.176883
0.257282 0.0865492 0.189425
0.280842 0.0960708 0.201877
0.305943 0.106294 0.214176
0.332723 0.117174 0.226291
0.361212 0.128756 0.238148
0.391485 0.141115 0.249683
0.423636 0.154253 0.260838
0.457832 0.168139 0.271565
0.493828 0.182818 0.281575
0.530877 0.198032 0.290501
0.566278 0.215717 0.299626
0.5991 0.236301 0.309483
0.628641 0.25977 0.319814
0.654459 0.285481 0.330297
0.676265 0.313329 0.341543
0 0.0289921 0.03505
0.0059968 0.0303197 0.0394293
0.013138 0.031632 0.0437781
0.0203403 0.0329595 0.0481727
0.0288853 0.0345006 0.0533455
0.0389715 0.0363317 0.0594797
0.050721 0.0384527 0.0665904
0.0641489 0.0408789 0.0747082
0.0792706 0.043595 0.0840772
0.0957198 0.0466316 0.0937819
0.11191 0.0499886 0.103853
0.128069 0.053666 0.114244
0.144244 0.0576638 0.12491
0.160784 0.0622263 0.136172
0.178347 0.0675975 0.147936
0.197055 0.0738689 0.159854
0.217014 0.0813611 0.171832
0.238224 0.0894789 0.183856
0.260853 0.0982528 0.19585
0.284977 0.107668 0.207782
0.310552 0.117845 0.219577
0.337758 0.12871 0.231205
0.366674 0.140322 0.242588
0.397421 0.152621 0.253666
0.429999 0.165759 0.264393
0.464591 0.179675 0.274632
0.500664 0.194202 0.284001
0.536995 0.209842 0.292638
0.571099 0.228168 0.3019
0.602487 0.249409 0.311833
0.630594 0.273045 0.322087
0.654887 0.298939 0.332692
0.675196 0.326818 0.344106
0 0.0405127 0.0489052
0.00552377 0.0418402 0.0532845
0.0126802 0.0431678 0.0576638
0.0198825 0.04448 0.0620584
0.0284123 0.0460517 0.0672465
0.038529 0.0478828 0.0733806
0.0502785 0.0500191 0.0805219
0.0637064 0.0524453 0.088716
0.0788434 0.0551766 0.0972152
0.0953384 0.0582132 0.106188
0.111559 0.0615854 0.115572
0.127764 0.0652628 0.125307
0.14432 0.0695201 0.135714
0.161746 0.0745556 0.146548
0.180148 0.0804608 0.15761
0.199619 0.0874189 0.168826
0.220279 0.0948043 0.180179
0.242145 0.102892 0.191577
0.2654 0.111604 0.202991
0.289998 0.121065 0.214328
0.316167 0.131197 0.225589
0.343938 0.142 0.236667
0.373342 0.153658 0.247532
0.404562 0.165972 0.258076
0.437613 0.179171 0.268254
0.47248 0.193133 0.277897
0.508644 0.207507 0.286473
0.543481 0.223911 0.295201
0.576059 0.243015 0.304601
0.605768 0.264775 0.314595
0.63212 0.28867 0.324773
0.654597 0.314763 0.335592
0.673198 0.34255 0.347295
0 0.0541848 0.0653239
0.00495918 0.0555123 0.0697185
0.0121157 0.0568399 0.0740978
0.0193332 0.0581674 0.0784924
0.0278477 0.0597391 0.0839246
0.037995 0.0615854 0.0898756
0.0497292 0.0637217 0.0964828
0.0631723 0.0661631 0.103716
0.0783093 0.0689097 0.111498
0.0948348 0.0719615 0.119768
0.111177 0.0753643 0.128542
0.127962 0.0794232 0.137942
0.145464 0.0844739 0.147738
0.16376 0.0899214 0.157809
0.183001 0.0960098 0.168154
0.203265 0.102754 0.178683
0.224613 0.110185 0.189349
0.247227 0.118242 0.200076
0.271092 0.127016 0.210834
0.296361 0.136461 0.221561
0.323125 0.146609 0.232197
0.351492 0.157504 0.242679
0.381445 0.169146 0.252918
0.413214 0.181613 0.262898
0.446815 0.194873 0.272465
0.481788 0.208713 0.281209
0.517067 0.223514 0.289464
0.55024 0.240772 0.29836
0.581003 0.260655 0.307927
0.608637 0.282856 0.317815
0.632898 0.307012 0.328069
0.65333 0.333181 0.339178
0.669978 0.360937 0.351186
0 0.0700694 0.0846113
0.0043183 0.071397 0.0888533
0.0114595 0.0727398 0.0929732
0.018677 0.0740673 0.0970169
0.0272068 0.075639 0.101656
0.0373388 0.0774853 0.106981
0.0491035 0.0796368 0.112963
0.0625315 0.0823377 0.119554
0.0777142 0.0850538 0.126711
0.0946212 0.0882887 0.134463
0.111772 0.0920577 0.142702
0.129488 0.0964065 0.151339
0.147875 0.10135 0.160388
0.167025 0.10692 0.169726
0.187091 0.113115 0.179324
0.208133 0.119951 0.18912
0.230259 0.127428 0.1991
0.25359 0.135561 0.20914
0.278172 0.144396 0.219211
0.304112 0.153887 0.229252
0.331533 0.164172 0.239231
0.360525 0.175128 0.249042
0.391119 0.186908 0.258625
0.423545 0.199435 0.267918
0.45745 0.212696 0.276616
0.492287 0.22649 0.284596
0.525567 0.242344 0.293004
0.556756 0.260563 0.302098
0.58526 0.281086 0.311711
0.610605 0.303624 0.321569
0.632364 0.328115 0.332143
0.650553 0.354269 0.343587
0.66479 0.382055 0.355947
0 0.0883192 0.104585
0.00355535 0.0895857 0.108339
0.0107118 0.090837 0.112001
0.0179141 0.0921035 0.115618
0.0264744 0.0935531 0.119799
0.0365911 0.0952773 0.12459
0.0484627 0.0973526 0.129992
0.0622721 0.0998703 0.135988
0.0781567 0.102831 0.142535
0.0959793 0.10631 0.149599
0.113985 0.110307 0.157107
0.132555 0.114855 0.165057
0.151766 0.119997 0.173358
0.171756 0.125704 0.181979
0.192645 0.132021 0.19086
0.214511 0.138964 0.199954
0.237354 0.146578 0.209186
0.261448 0.154833 0.218509
0.286763 0.163775 0.227878
0.313451 0.173404 0.237217
0.341543 0.18381 0.246464
0.371221 0.194934 0.255558
0.402579 0.206867 0.264439
0.435447 0.219471 0.272847
0.469505 0.232547 0.280522
0.502449 0.247318 0.288563
0.533562 0.264134 0.2972
0.562371 0.283238 0.306477
0.588174 0.304341 0.315969
0.610849 0.32723 0.326085
0.629999 0.351843 0.337041
0.645579 0.377997 0.348867
0.657313 0.405585 0.361547
0 0.106783 0.124392
0.00277714 0.107988 0.127642
0.0100099 0.109255 0.130861
0.0173953 0.110552 0.134035
0.026154 0.112139 0.137728
0.0366827 0.114092 0.142031
0.0491188 0.116442 0.146899
0.0636301 0.119219 0.152316
0.0804913 0.122438 0.158267
0.0990768 0.126162 0.164675
0.117937 0.130373 0.171542
0.137316 0.135134 0.178805
0.157351 0.140444 0.186419
0.178134 0.146349 0.194339
0.199802 0.15285 0.202502
0.222416 0.15996 0.210849
0.246098 0.167742 0.219364
0.270939 0.17615 0.22797
0.297017 0.185275 0.236591
0.324453 0.195102 0.245182
0.353384 0.205661 0.253681
0.38381 0.216999 0.262013
0.415717 0.229038 0.269978
0.448814 0.241474 0.277333
0.481132 0.255344 0.284993
0.511666 0.271168 0.293233
0.540307 0.289052 0.302129
0.566125 0.308812 0.311284
0.589014 0.330327 0.321019
0.608698 0.353491 0.331533
0.625055 0.378164 0.342931
0.637781 0.404257 0.355138
0.646677 0.431632 0.368215
0 0.126665 0.14313
0.00273136 0.128099 0.146044
0.0102541 0.129549 0.148928
0.0179446 0.131029 0.151781
0.0271763 0.132815 0.155108
0.0382849 0.134981 0.158968
0.0514534 0.13756 0.163378
0.0669718 0.140551 0.168276
0.0851453 0.143999 0.173663
0.104219 0.147936 0.179492
0.123735 0.152392 0.185748
0.143908 0.157351 0.192355
0.164706 0.162875 0.199298
0.186297 0.168978 0.206516
0.208743 0.175692 0.213977
0.232181 0.182986 0.221622
0.256626 0.190997 0.229389
0.282246 0.199649 0.237232
0.309163 0.208957 0.24509
0.337407 0.219013 0.252918
0.367102 0.229801 0.260609
0.398154 0.241215 0.267948
0.430289 0.253086 0.274937
0.46157 0.266346 0.282292
0.491295 0.281346 0.290166
0.51902 0.29836 0.298695
0.544518 0.31693 0.3075
0.567254 0.337133 0.316899
0.586999 0.358923 0.327108
0.603525 0.382254 0.338094
0.616739 0.406912 0.349874
0.626429 0.432822 0.362509
0.632181 0.459953 0.375998
0 0.148928 0.161028
0.00384527 0.150515 0.163653
0.0118257 0.152117 0.166232
0.0199893 0.15375 0.168795
0.0298009 0.155703 0.171786
0.0416571 0.158053 0.175265
0.055848 0.1608 0.179232
0.0724651 0.164004 0.183658
0.0917067 0.167681 0.18851
0.111467 0.171817 0.19379
0.13167 0.176471 0.199435
0.152544 0.181659 0.205432
0.174105 0.187411 0.211719
0.196429 0.193759 0.218265
0.219654 0.200671 0.22501
0.243885 0.208225 0.231922
0.269154 0.216464 0.238972
0.295598 0.225376 0.246052
0.323354 0.234943 0.253101
0.352422 0.245258 0.260075
0.38265 0.256077 0.266773
0.413581 0.267521 0.273365
0.443488 0.280278 0.280415
0.472007 0.294667 0.287999
0.498772 0.31078 0.296178
0.523293 0.32842 0.304662
0.545342 0.34757 0.313787
0.564675 0.368093 0.323659
0.581064 0.390082 0.33434
0.594202 0.413458 0.345785
0.604044 0.43801 0.358022
0.610315 0.463706 0.371069
0.612726 0.490455 0.384985
0 0.173617 0.17792
0.00648508 0.175326 0.180255
0.0150454 0.177066 0.182559
0.0238804 0.178805 0.184878
0.0344549 0.180911 0.187549
0.047364 0.183398 0.190677
0.062623 0.186343 0.194232
0.080705 0.189731 0.198215
0.10071 0.193606 0.202579
0.121035 0.19794 0.207309
0.141863 0.202838 0.21239
0.163378 0.20827 0.217777
0.185672 0.214237 0.223423
0.208759 0.220798 0.229297
0.232746 0.228 0.23534
0.25774 0.235859 0.241535
0.283894 0.244327 0.247791
0.311177 0.253529 0.254078
0.339635 0.263279 0.260243
0.368978 0.273564 0.266346
0.398398 0.284642 0.272633
0.426703 0.297063 0.279408
0.453696 0.310948 0.286748
0.478996 0.326421 0.29456
0.502251 0.343206 0.302815
0.523293 0.361273 0.311727
0.541619 0.38085 0.32137
0.557534 0.401526 0.331746
0.57023 0.423636 0.34287
0.579705 0.446952 0.354803
0.585931 0.471321 0.367483
0.588418 0.496696 0.380972
0.586816 0.523095 0.395224
0.00204471 0.200793 0.193606
0.0112612 0.202625 0.195697
0.0206149 0.204471 0.197757
0.0302281 0.206332 0.199802
0.0418097 0.20856 0.202197
0.055848 0.211215 0.204974
0.0725872 0.214313 0.208148
0.092195 0.217884 0.211704
0.112413 0.221942 0.215595
0.133165 0.226505 0.219806
0.154543 0.231632 0.224338
0.176699 0.237324 0.229114
0.199634 0.243519 0.234119
0.223392 0.250401 0.239307
0.248219 0.257847 0.244648
0.274067 0.265965 0.25008
0.300862 0.274693 0.255573
0.328618 0.283864 0.261097
0.356802 0.293675 0.266697
0.384161 0.304585 0.27277
0.410574 0.316747 0.279347
0.43563 0.330327 0.286412
0.459205 0.345098 0.293935
0.480812 0.361105 0.301991
0.500267 0.378378 0.31078
0.517525 0.396826 0.320195
0.532128 0.416556 0.330343
0.544076 0.437385 0.341222
0.552895 0.459449 0.352819
0.558694 0.482521 0.365194
0.560723 0.506661 0.378347
0.559136 0.531563 0.392248
0.553414 0.557366 0.406958
0.00883497 0.23064 0.207889
0.0189517 0.232578 0.20972
0.0293278 0.234531 0.211551
0.0398871 0.2365 0.213352
0.0526741 0.238834 0.215473
0.0681163 0.241642 0.217929
0.0867933 0.244907 0.220722
0.106523 0.248661 0.22385
0.126909 0.252934 0.227268
0.148089 0.257694 0.230961
0.16994 0.263081 0.234928
0.192691 0.269001 0.239109
0.216266 0.275502 0.243473
0.240742 0.282643 0.248051
0.266087 0.290257 0.252766
0.292256 0.298375 0.257572
0.318807 0.307134 0.262592
0.344686 0.316838 0.268009
0.369818 0.327626 0.273899
0.393973 0.339574 0.280247
0.416922 0.352697 0.287037
0.4383 0.366873 0.294453
0.458091 0.382101 0.302419
0.475792 0.398566 0.311025
0.491356 0.416083 0.320287
0.504646 0.434745 0.330236
0.515267 0.454536 0.340887
0.523095 0.475334 0.352239
0.528008 0.497124 0.364324
0.529152 0.520012 0.377157
0.526894 0.543648 0.390723
0.520409 0.568215 0.405097
0.510582 0.593133 0.419867
0.01944 0.263325 0.220493
0.0306706 0.265385 0.22208
0.0421912 0.26743 0.223667
0.0539559 0.269505 0.225238
0.068101 0.271962 0.227054
0.0855116 0.274922 0.229206
0.104311 0.278355 0.231617
0.124025 0.282277 0.234318
0.144579 0.286778 0.237278
0.166018 0.291798 0.240558
0.188312 0.297337 0.244083
0.211383 0.303426 0.247837
0.235218 0.309972 0.251728
0.259907 0.317021 0.255787
0.284123 0.324865 0.260243
0.307897 0.333608 0.265064
0.331319 0.343206 0.270314
0.353841 0.353857 0.27599
0.375586 0.365499 0.282216
0.396094 0.378073 0.28896
0.415137 0.391653 0.296269
0.432639 0.40621 0.304128
0.448386 0.42182 0.312612
0.462272 0.438407 0.321736
0.473732 0.456123 0.331518
0.482795 0.474815 0.341985
0.489174 0.494469 0.353079
0.4925 0.515145 0.36492
0.492576 0.536706 0.377508
0.488945 0.559152 0.390738
0.4813 0.582315 0.404715
0.470634 0.60592 0.419089
0.459632 0.629221 0.433326
0.0350805 0.299062 0.231113
0.0476387 0.301244 0.232532
0.060441 0.30341 0.233936
0.0735485 0.305608 0.235355
0.0894789 0.308171 0.237003
0.106569 0.311269 0.238926
0.125032 0.314809 0.241123
0.144503 0.318807 0.243565
0.164935 0.323323 0.24625
0.186313 0.328328 0.249134
0.207919 0.333944 0.252323
0.229694 0.340169 0.255818
0.251408 0.347127 0.259709
0.272847 0.354879 0.263996
0.293935 0.3635 0.26865
0.314595 0.37293 0.273823
0.334417 0.383261 0.279484
0.353384 0.3944 0.285649
0.37113 0.406485 0.292348
0.3879 0.419379 0.29955
0.403021 0.433249 0.307347
0.416541 0.448066 0.315709
0.428092 0.463813 0.324666
0.43769 0.480491 0.33431
0.444694 0.498207 0.344564
0.44918 0.516777 0.355489
0.450767 0.536233 0.367086
0.448997 0.556603 0.3794
0.44358 0.577737 0.392355
0.433936 0.599664 0.405997
0.422354 0.62179 0.419852
0.410407 0.643732 0.4336
0.397986 0.665476 0.447211
0.0562753 0.337774 0.240726
0.0703136 0.339925 0.241978
0.0848096 0.342061 0.243214
0.0983902 0.344244 0.24445
0.112871 0.346822 0.24593
0.128649 0.34995 0.247684
0.145525 0.353567 0.249729
0.163165 0.357763 0.25211
0.18114 0.362585 0.25478
0.199634 0.367971 0.257771
0.218219 0.374121 0.261143
0.236957 0.380957 0.264973
0.255467 0.388556 0.269245
0.273503 0.396872 0.273945
0.291371 0.405875 0.279088
0.308492 0.415671 0.284688
0.324636 0.426291 0.290776
0.339788 0.437751 0.297383
0.353918 0.449989 0.304509
0.366613 0.463096 0.3122
0.377615 0.477134 0.320439
0.386709 0.492073 0.32932
0.393774 0.50782 0.33875
0.398611 0.524437 0.348837
0.400793 0.541924 0.359564
0.399756 0.560327 0.370916
0.395239 0.579522 0.382971
0.387121 0.599466 0.395697
0.375036 0.62002 0.408865
0.362387 0.640528 0.42211
0.348821 0.661051 0.435309
0.334859 0.681392 0.448478
0.320424 0.70161 0.461555
0.0721141 0.379202 0.249836
0.0851606 0.381537 0.251148
0.0972763 0.383871 0.252461
0.108553 0.386252 0.253788
0.120882 0.38909 0.255436
0.134539 0.392416 0.257343
0.148669 0.396414 0.259632
0.163745 0.400992 0.262257
0.179355 0.406149 0.265293
0.195056 0.411948 0.268635
0.21088 0.418387 0.272419
0.226658 0.425498 0.2766
0.242084 0.43331 0.281209
0.257084 0.441825 0.286275
0.27155 0.451057 0.291814
0.285008 0.461082 0.29778
0.297719 0.471839 0.304311
0.309102 0.483391 0.311315
0.319036 0.495796 0.318914
0.327428 0.508949 0.327031
0.333822 0.522972 0.335698
0.33817 0.537789 0.345022
0.33991 0.553445 0.354925
0.338903 0.569894 0.365454
0.334524 0.587137 0.376577
0.325963 0.605249 0.388418
0.313619 0.623926 0.400793
0.299092 0.642924 0.413336
0.284169 0.661875 0.425971
0.267796 0.680888 0.438544
0.249989 0.699977 0.451118
0.231937 0.718837 0.463722
0.213184 0.737575 0.476265
0.0534981 0.425055 0.26157
0.0641947 0.427527 0.26305
0.0749065 0.429969 0.264546
0.0858167 0.432441 0.266041
0.0974594 0.435386 0.267826
0.109865 0.438895 0.269947
0.122911 0.442969 0.27245
0.136431 0.447669 0.275288
0.150332 0.452949 0.278508
0.164279 0.458824 0.28217
0.177813 0.465415 0.286213
0.190997 0.472679 0.2907
0.203784 0.480583 0.295644
0.2159 0.489174 0.301045
0.226719 0.498589 0.30692
0.236866 0.508629 0.313283
0.245701 0.519432 0.320211
0.252842 0.530983 0.327642
0.257633 0.543404 0.335622
0.260807 0.556527 0.344167
0.261479 0.570382 0.353262
0.258885 0.585046 0.362951
0.252827 0.600488 0.373266
0.242725 0.616648 0.384161
0.227466 0.633524 0.395682
0.209644 0.650721 0.407492
0.18967 0.668132 0.419318
0.167315 0.685618 0.431235
0.142214 0.703197 0.443198
0.113909 0.720775 0.455222
0.0792554 0.738415 0.467308
0.0433814 0.755871 0.479316
0.0075227 0.773342 0.491402
0 0.473823 0.276249
0 0.476265 0.277836
0.00427253 0.478813 0.279454
0.0121004 0.481331 0.281041
0.0210117 0.484321 0.282979
0.0313115 0.487861 0.285252
0.0428016 0.491997 0.287892
0.0551766 0.496727 0.290974
0.0685893 0.502052 0.294438
0.0823835 0.508064 0.298329
0.0960098 0.514656 0.302663
0.108034 0.52195 0.307424
0.118761 0.5299 0.312642
0.127871 0.538582 0.318395
0.135698 0.547875 0.324605
0.141238 0.557961 0.33135
0.144625 0.568719 0.338613
0.144854 0.580224 0.346395
0.142412 0.592416 0.354726
0.1355 0.605371 0.363653
0.123537 0.619013 0.373129
0.104112 0.633433 0.383215
0.0741131 0.648493 0.39382
0.0407874 0.663874 0.404654
0.00730907 0.679469 0.415641
0 0.695354 0.426749
0 0.711376 0.438025
0 0.727489 0.449317
0 0.743725 0.460731
0 0.759991 0.472206
0 0.776257 0.483696
0 0.792462 0.495308
0 0.808621 0.50692
0 0.524727 0.293782
0 0.52726 0.295506
0 0.529793 0.297215
0 0.532341 0.298939
0 0.535302 0.300969
0 0.538888 0.303365
0 0.543053 0.306218
0 0.547753 0.309468
0 0.553094 0.31313
0 0.559075 0.31725
0 0.565652 0.321843
0 0.5729 0.326818
0 0.580865 0.332372
0 0.589395 0.338369
0 0.598688 0.344915
0 0.608698 0.351919
0 0.619257 0.359518
0 0.630549 0.367651
0 0.642512 0.376303
0 0.655192 0.385534
0 0.668391 0.395132
0 0.681926 0.404944
0 0.695781 0.414984
0 0.709911 0.425208
0 0.724269 0.435615
0 0.738888 0.446128
0 0.753643 0.456809
0 0.768505 0.467582
0 0.783475 0.478477
0 0.798459 0.489448
0 0.813443 0.500465
0 0.828489 0.51165
0 0.843351 0.522789
0 0.577462 0.314321
0 0.579889 0.316121
0 0.582437 0.317922
0 0.584955 0.319707
0 0.587976 0.321889
0 0.591485 0.324422
0 0.595605 0.327413
0 0.600336 0.330816
0 0.6056 0.334661
0 0.611475 0.33901
0 0.618006 0.343771
0 0.625147 0.349065
0 0.632929 0.354803
0 0.641382 0.361044
0 0.650492 0.367834
0 0.660273 0.375143
0 0.670619 0.382971
0 0.681514 0.39118
0 0.69279 0.399649
0 0.704509 0.408423
0 0.716609 0.417456
0 0.728985 0.426688
0 0.741726 0.436118
0 0.754681 0.445823
0 0.76788 0.45565
0 0.781292 0.465644
0 0.794781 0.475807
0 0.808454 0.486137
0 0.822232 0.496513
0 0.836164 0.506981
0 0.849882 0.517617
0 0.863737 0.528344
0 0.877501 0.539117
0 0.631312 0.337819
0 0.633783 0.339681
0 0.636255 0.341558
0 0.638727 0.343481
0 0.641688 0.345739
0 0.64509 0.348363
0 0.649195 0.351492
0 0.653788 0.355047
0 0.659022 0.359045
0 0.664759 0.363546
0 0.671183 0.36849
0 0.678203 0.373983
0 0.685832 0.379904
0 0.693889 0.386236
0 0.702495 0.392889
0 0.711589 0.399893
0 0.721096 0.407263
0 0.731029 0.414908
0 0.741375 0.422904
0 0.752148 0.431113
0 0.76318 0.439582
0 0.774548 0.448341
0 0.78616 0.457298
0 0.798077 0.466438
0 0.810193 0.475792
0 0.822461 0.485283
0 0.834897 0.494972
0 0.847486 0.504814
0 0.860075 0.514778
0 0.87274 0.52488
0 0.885481 0.535073
0 0.898207 0.545403
0 0.910918 0.555825
0 0.685985 0.364263
0 0.688396 0.366262
0 0.690822 0.368215
0 0.693233 0.370123
0 0.696071 0.372457
0 0.699458 0.375174
0 0.703365 0.378332
0 0.707759 0.381872
0 0.712657 0.38584
0 0.718135 0.390188
0 0.724117 0.39498
0 0.730541 0.400137
0 0.737499 0.405661
0 0.744823 0.411505
0 0.752758 0.417807
0 0.760983 0.424323
0 0.769665 0.431266
0 0.77879 0.438437
0 0.788281 0.445975
0 0.798062 0.453712
0 0.808133 0.461738
0 0.818555 0.469963
0 0.829175 0.478477
0 0.840085 0.48716
0 0.851087 0.496056
0 0.862348 0.50515
0 0.873762 0.514351
0 0.885252 0.523812
0 0.896834 0.533425
0 0.908507 0.54313
0 0.92015 0.552972
0 0.931853 0.562966
0 0.943465 0.573068
0 0.740063 0.392401
0 0.742367 0.394247
0 0.744533 0.396063
0 0.746746 0.397864
0 0.749371 0.400076
0 0.752438 0.402564
0 0.755978 0.405463
0 0.759976 0.408789
0 0.764477 0.412482
0 0.769436 0.416571
0 0.774899 0.421042
0 0.780743 0.425803
0 0.787045 0.430961
0 0.79382 0.436484
0 0.800977 0.442329
0 0.808499 0.448539
0 0.816403 0.455039
0 0.824765 0.461799
0 0.83331 0.468833
0 0.842268 0.476249
0 0.851484 0.483772
0 0.860945 0.491646
0 0.870726 0.499748
0 0.880583 0.508003
0 0.8907 0.516487
0 0.901015 0.525185
0 0.911452 0.534035
0 0.921859 0.54313
0 0.932555 0.552377
0 0.943206 0.561715
0 0.953902 0.571237
0 0.964553 0.580941
0 0.97528 0.590677
0 0.791897 0.419913
0 0.793896 0.421683
0 0.795895 0.423331
0 0.797894 0.42504
0 0.80029 0.427054
0 0.803098 0.42945
0 0.806317 0.432135
0 0.809964 0.435233
0 0.814084 0.438712
0 0.818555 0.442496
0 0.823468 0.446647
0 0.828824 0.451164
0 0.834546 0.455985
0 0.84065 0.461158
0 0.847211 0.466697
0 0.854063 0.472511
0 0.86128 0.478645
0 0.868833 0.485084
0 0.876646 0.491768
0 0.884764 0.498711
0 0.893187 0.505928
0 0.901793 0.513405
0 0.910658 0.52108
0 0.919722 0.529046
0 0.928985 0.537179
0 0.938277 0.545525
0 0.947784 0.55404
0 0.957382 0.562799
0 0.967132 0.571649
0 0.976822 0.580575
0 0.986603 0.589929
0 0.996414 0.599344
0 1 0.608881
0 0.841291 0.446937
0 0.843091 0.448539
0 0.844953 0.450172
0 0.846738 0.451743
0 0.848966 0.45362
0 0.851453 0.455817
0 0.854383 0.458381
0 0.857633 0.461265
0 0.861402 0.464515
0 0.865476 0.468071
0 0.869978 0.472007
0 0.874769 0.476204
0 0.879957 0.480812
0 0.885588 0.485695
0 0.891447 0.490929
0 0.897688 0.496422
0 0.904234 0.50222
0 0.911101 0.508293
0 0.918196 0.514672
0 0.925566 0.521279
0 0.933196 0.528206
0 0.940993 0.535348
0 0.94905 0.542702
0 0.95729 0.550286
0 0.965743 0.558114
0 0.974212 0.566186
0 0.982895 0.574258
0 0.991653 0.582773
0 1 0.591379
0 1 0.600061
0 1 0.608957
0 1 0.617914
0 1 0.627024
0 0.888334 0.473579
0 0.889998 0.475044
0 0.891646 0.476585
0 0.893339 0.478096
0 0.895308 0.479805
0 0.897536 0.481926
0 0.900206 0.484321
0 0.903212 0.487053
0 0.906493 0.490105
