Assets/Test.cube
TITLE "Generated by Resolve"
LUT_3D_SIZE 9
0 0 0
0.0299535 0.00535592 0.0180667
0.0803082 0.0143587 0.0484169
0.144915 0.0283513 0.0952316
0.211078 0.0482795 0.147738
0.297429 0.0821546 0.202502
0.41146 0.130709 0.253147
0.555093 0.19118 0.295262
0.676936 0.285985 0.33666
0 0.0405127 0.0489052
0.0284123 0.0460517 0.0672465
0.0788434 0.0551766 0.0972152
0.14432 0.0695201 0.135714
0.220279 0.0948043 0.180179
0.316167 0.131197 0.225589
0.437613 0.179171 0.268254
0.576059 0.243015 0.304601
0.673198 0.34255 0.347295
0 0.106783 0.124392
0.026154 0.112139 0.137728
0.0804913 0.122438 0.158267
0.157351 0.140444 0.186419
0.246098 0.167742 0.219364
0.353384 0.205661 0.253681
0.481132 0.255344 0.284993
0.589014 0.330327 0.321019
0.646677 0.431632 0.368215
0.00204471 0.200793 0.193606
0.0418097 0.20856 0.202197
0.112413 0.221942 0.215595
0.199634 0.243519 0.234119
0.300862 0.274693 0.255573
0.410574 0.316747 0.279347
0.500267 0.378378 0.31078
0.552895 0.459449 0.352819
0.553414 0.557366 0.406958
0.0562753 0.337774 0.240726
0.112871 0.346822 0.24593
0.18114 0.362585 0.25478
0.255467 0.388556 0.269245
0.324636 0.426291 0.290776
0.377615 0.477134 0.320439
0.400793 0.541924 0.359564
0.375036 0.62002 0.408865
0.320424 0.70161 0.461555
0 0.524727 0.293782
0 0.535302 0.300969
0 0.553094 0.31313
0 0.580865 0.332372
0 0.619257 0.359518
0 0.668391 0.395132
0 0.724269 0.435615
0 0.783475 0.478477
0 0.843351 0.522789
0 0.740063 0.392401
0 0.749371 0.400076
0 0.764477 0.412482
0 0.787045 0.430961
0 0.816403 0.455039
0 0.851484 0.483772
0 0.8907 0.516487
0 0.932555 0.552377
0 0.97528 0.590677
0 0.933135 0.499931
0 0.9393 0.505837
0 0.949554 0.515526
0 0.964706 0.53019
0 0.984558 0.549538
0 1 0.573297
0 1 0.600427
0 1 0.630518
0 1 0.66302
0 1 0.601801
0 1 0.606363
0 1 0.61387
0 1 0.625238
0 1 0.640452
0 1 0.659205
0 1 0.681193
0 1 0.705928
0 1 0.732723
0 0.00444038 0.0720073
0.0295872 0.00889601 0.0989395
0.0805829 0.0170748 0.129213
0.145464 0.0304112 0.164874
0.213397 0.0504921 0.207309
0.302068 0.0848707 0.255207
0.417121 0.132906 0.30074
0.55996 0.19292 0.339193
0.677485 0.288746 0.378973
0 0.0440681 0.128069
0.0280613 0.0491493 0.143252
0.0789197 0.0577707 0.165393
0.145647 0.072221 0.196216
0.223804 0.0979629 0.234653
0.32108 0.133974 0.275013
0.443229 0.181399 0.313817
0.579095 0.245487 0.347814
0.672511 0.345251 0.389105
0 0.109789 0.185092
0.0263218 0.11545 0.196323
0.0825208 0.125978 0.213931
0.160494 0.143984 0.238575
0.250431 0.170977 0.267994
0.358465 0.208377 0.299199
0.485023 0.257725 0.328267
0.589364 0.333059 0.36318
0.644068 0.434226 0.409247
0.00331121 0.204807 0.242374
0.0442969 0.212467 0.250095
0.116152 0.225635 0.262226
0.203861 0.246921 0.279179
0.305486 0.277562 0.299016
0.413031 0.31957 0.321904
0.499947 0.381094 0.352697
0.549844 0.462058 0.393866
0.547356 0.559777 0.446662
0.0614481 0.341039 0.282948
0.116915 0.350011 0.28806
0.183291 0.365682 0.296757
0.255619 0.391638 0.311192
0.322896 0.429175 0.332464
0.373739 0.47985 0.361669
0.3944 0.544457 0.399985
0.365881 0.622171 0.448066
0.30959 0.703166 0.498848
0 0.527626 0.334936
0 0.538125 0.341985
0 0.55581 0.353933
0 0.583444 0.372854
0 0.621637 0.399405
0 0.670527 0.434134
0 0.726009 0.473243
0 0.784726 0.514595
0 0.844297 0.557275
0 0.742077 0.430701
0 0.751308 0.438132
0 0.766308 0.450095
0 0.788693 0.46804
0 0.817838 0.491249
0 0.852659 0.519066
0 0.891615 0.550637
0 0.933181 0.585153
0 0.975753 0.622034
0 0.934188 0.533913
0 0.940352 0.53959
0 0.950484 0.549004
0 0.965545 0.563088
0 0.985275 0.581521
0 1 0.604715
0 1 0.630869
0 1 0.659861
0 1 0.691264
0 1 0.631495
0 1 0.635889
0 1 0.643153
0 1 0.654139
0 1 0.668849
0 1 0.687037
0 1 0.708263
0 1 0.732219
0 1 0.758297
0 0.0134127 0.164523
0.0269932 0.0175784 0.183505
0.078645 0.0250553 0.207691
0.144656 0.0374304 0.237308
0.217166 0.0581521 0.278157
0.309468 0.0928969 0.322652
0.426535 0.139132 0.364477
0.567086 0.198444 0.399725
0.677592 0.295064 0.438483
0 0.0525978 0.206287
0.0256962 0.0572366 0.218753
0.0771344 0.0652476 0.237263
0.147463 0.080705 0.266972
0.229267 0.106279 0.3028
0.329061 0.141146 0.33994
0.452522 0.187076 0.37554
0.583398 0.25156 0.407889
0.670466 0.351308 0.448341
0 0.117815 0.255238
0.025452 0.123735 0.265766
0.0844434 0.134371 0.282124
0.165103 0.152117 0.304845
0.257176 0.178393 0.331853
0.366735 0.214786 0.360632
0.490608 0.263569 0.387915
0.588952 0.339055 0.42237
0.638575 0.439811 0.467964
0.00436408 0.213016 0.305653
0.0474098 0.220493 0.312779
0.121401 0.233326 0.323964
0.210437 0.254047 0.339666
0.31284 0.283574 0.358038
0.416068 0.325719 0.380819
0.497948 0.38703 0.411536
0.54342 0.467475 0.452461
0.536355 0.564508 0.504356
0.0679637 0.347524 0.340627
0.12105 0.356466 0.345785
0.184649 0.372122 0.354681
0.254063 0.397879 0.369421
0.318196 0.435096 0.390921
0.36556 0.485359 0.420111
0.381994 0.549523 0.458106
0.348653 0.626429 0.505104
0.289601 0.706249 0.553903
0 0.533196 0.392996
0 0.543603 0.400046
0 0.56112 0.411994
0 0.588479 0.430762
0 0.626398 0.457008
0 0.674723 0.490852
0 0.729381 0.528603
0 0.787243 0.568261
0 0.846113 0.609033
0 0.746044 0.486671
0 0.755077 0.493812
0 0.769879 0.50544
0 0.791882 0.522667
0 0.82063 0.545037
0 0.855009 0.57171
0 0.893538 0.601923
0 0.934585 0.634852
0 0.976684 0.669963
0 0.936248 0.584955
0 0.942336 0.590417
0 0.9523 0.599405
0 0.967224 0.61294
0 0.986633 0.630579
0 1 0.652674
0 1 0.677485
0 1 0.705165
0 1 0.735073
0 1 0.677089
0 1 0.6813
0 1 0.688243
0 1 0.698695
0 1 0.71284
0 1 0.730159
0 1 0.75053
0 1 0.773388
0 1 0.79826
0 0.0285039 0.256306
0.0219577 0.0324865 0.270619
0.0740978 0.0395209 0.290532
0.144015 0.052018 0.319432
0.223575 0.0748608 0.363027
0.32076 0.108904 0.405295
0.440772 0.152148 0.4439
0.576028 0.210849 0.476249
0.675624 0.30779 0.514458
0 0.0674754 0.289158
0.0208286 0.0718853 0.299947
0.0743725 0.0812543 0.31986
0.150698 0.098024 0.351217
0.237598 0.122301 0.385595
0.340978 0.155276 0.420172
0.466056 0.198489 0.452247
0.587442 0.26421 0.483848
0.66508 0.363195 0.524254
0 0.133333 0.338293
0.0230716 0.139391 0.348562
0.086656 0.149966 0.364248
0.171679 0.167132 0.385657
0.26714 0.192264 0.410758
0.379019 0.226856 0.437064
0.49688 0.275532 0.463416
0.585992 0.350958 0.497887
0.62771 0.450462 0.543801
0.00485237 0.227466 0.383383
0.0511025 0.234653 0.38996
0.128679 0.247013 0.400381
0.219928 0.266911 0.414984
0.321996 0.295033 0.432029
0.417975 0.337499 0.455375
0.492378 0.398276 0.486671
0.530831 0.477729 0.528008
0.516228 0.573419 0.579705
0.0708324 0.35938 0.413199
0.121355 0.368261 0.41857
0.181949 0.383871 0.427985
0.247532 0.409247 0.44329
0.307103 0.445914 0.46537
0.349004 0.495491 0.495125
0.358282 0.558862 0.533394
0.316869 0.634302 0.579751
0.252796 0.712001 0.626673
0 0.54313 0.467414
0 0.553338 0.474601
0 0.570642 0.486717
0 0.59765 0.505653
0 0.635065 0.531991
0 0.682322 0.565194
0 0.735546 0.601617
0 0.792065 0.639689
0 0.849653 0.678569
0 0.752987 0.560174
0 0.7617 0.567041
0 0.776165 0.578332
0 0.79762 0.59501
0 0.825727 0.616526
0 0.859327 0.642145
0 0.897032 0.670954
0 0.937377 0.702251
0 0.978851 0.735485
0 0.939956 0.653758
0 0.945907 0.658976
0 0.955673 0.667552
0 0.970306 0.680461
0 0.989441 0.697353
0 1 0.718166
0 1 0.741588
0 1 0.767697
0 1 0.795956
0 1 0.740017
0 1 0.743984
0 1 0.750576
0 1 0.760586
0 1 0.773907
0 1 0.790356
0 1 0.809583
0 1 0.83125
0 1 0.854841
0 0.0504311 0.34757
0.0142519 0.0543526 0.359045
0.0680095 0.0623331 0.379934
0.146014 0.0781415 0.416419
0.233356 0.102785 0.46041
0.336248 0.133486 0.49958
0.459495 0.172747 0.533745
0.583581 0.232654 0.563684
0.669093 0.328634 0.601251
0 0.0913252 0.379278
0.0137484 0.0970779 0.393118
0.0715801 0.107546 0.41706
0.155962 0.123949 0.447852
0.249073 0.146685 0.480079
0.357107 0.177172 0.511543
0.48101 0.217746 0.53904
0.588632 0.285054 0.570275
0.653666 0.38262 0.61117
0 0.157305 0.433417
0.018967 0.163317 0.443168
0.0892805 0.173556 0.457923
0.180438 0.189837 0.477668
0.280491 0.213474 0.500481
0.393988 0.245472 0.522988
0.500557 0.295354 0.549447
0.577752 0.370047 0.58407
0.608484 0.467658 0.630915
0.00494392 0.248905 0.471611
0.0558633 0.255726 0.477653
0.138079 0.26746 0.487129
0.232074 0.285847 0.499657
0.328603 0.313588 0.516411
0.415244 0.356161 0.540246
0.479973 0.416068 0.572442
0.508339 0.494133 0.614725
0.484306 0.587274 0.666453
0.0608835 0.377646 0.496132
0.109819 0.386542 0.501854
0.168307 0.401938 0.511742
0.23032 0.426703 0.527626
0.284215 0.46273 0.5505
0.318349 0.511452 0.581094
0.316289 0.573571 0.620066
0.262745 0.646586 0.665858
0.186481 0.721355 0.711147
0 0.558419 0.552728
0 0.568444 0.560113
0 0.585336 0.572457
0 0.611749 0.591791
0 0.648508 0.618494
0 0.69395 0.65095
0 0.745144 0.686213
0 0.799832 0.722957
0 0.855711 0.760174
0 0.763485 0.645197
0 0.771908 0.651926
0 0.78584 0.662852
0 0.806622 0.679011
0 0.833722 0.699779
0 0.866255 0.724483
0 0.902876 0.752071
0 0.942061 0.781949
0 0.982406 0.813535
0 0.945861 0.734691
0 0.951659 0.739696
0 0.961135 0.747936
0 0.975357 0.76025
0 0.993942 0.776486
0 1 0.796048
0 1 0.818235
0 1 0.84303
0 1 0.869734
0 1 0.815503
0 1 0.819287
0 1 0.825559
0 1 0.835004
0 1 0.847669
0 1 0.863264
0 1 0.881559
0 1 0.902007
0 1 0.924346
0 0.0830396 0.447272
0.00373846 0.0889601 0.462913
0.0626383 0.0996414 0.489952
0.150668 0.117067 0.530846
0.246723 0.138994 0.57023
0.356069 0.166262 0.604273
0.477989 0.202213 0.631235
0.585031 0.264454 0.658915
0.654414 0.358236 0.695842
0 0.126253 0.490043
0.00296025 0.132738 0.506325
0.068574 0.14316 0.529412
0.163546 0.158434 0.557076
0.264042 0.179156 0.585306
0.376974 0.20647 0.611429
0.491203 0.247395 0.634623
0.582727 0.314992 0.664225
0.633021 0.409873 0.705837
0 0.189807 0.540856
0.0133364 0.195499 0.549523
0.0930495 0.205081 0.562493
0.191836 0.220203 0.579675
0.297078 0.241688 0.598535
0.404349 0.272984 0.61735
0.496971 0.32372 0.643137
0.56025 0.397086 0.678172
0.576837 0.491981 0.725978
0.0053254 0.277485 0.568811
0.0625925 0.283711 0.573785
0.149889 0.294148 0.581094
0.239948 0.311864 0.592126
0.326741 0.340291 0.609522
0.402655 0.382406 0.633066
0.455756 0.441169 0.666133
0.470741 0.517311 0.709484
0.436103 0.606485 0.760754
0.0230716 0.403037 0.587503
0.0681773 0.411749 0.593423
0.130724 0.426719 0.603647
0.191135 0.451011 0.62005
0.239307 0.486275 0.643626
0.26302 0.533791 0.67509
0.240894 0.594354 0.71487
0.165087 0.663706 0.759426
0.0432898 0.734646 0.803037
0 0.579553 0.646128
0 0.589288 0.653696
0 0.605798 0.666392
0 0.631617 0.686091
0 0.667079 0.712932
0 0.71017 0.744305
0 0.758801 0.778363
0 0.810941 0.813764
0 0.864515 0.849531
0 0.777996 0.737911
0 0.786023 0.744411
0 0.799252 0.755016
0 0.81912 0.770611
0 0.844999 0.790646
0 0.876112 0.814511
0 0.911223 0.841077
0 0.949004 0.869642
0 0.98819 0.899825
0 0.954238 0.82356
0 0.959869 0.828336
0 0.968963 0.836316
0 0.982635 0.847913
0 1 0.863676
0 1 0.882124
0 1 0.903365
0 1 0.92694
0 1 0.952361
0 1 0.899626
0 1 0.903197
0 1 0.909163
0 1 0.918242
0 1 0.930282
0 1 0.945144
0 1 0.962493
0 1 0.981918
0 1 1
0 0.129763 0.575723
0 0.136522 0.594491
0.0547036 0.148043 0.625086
0.157733 0.163622 0.660029
0.263844 0.182559 0.691539
0.377646 0.205905 0.715923
0.48603 0.243442 0.736248
0.575158 0.305776 0.760098
0.627008 0.396277 0.796902
0 0.171817 0.623331
0 0.177722 0.636942
0.0652476 0.187076 0.655726
0.173648 0.200656 0.677974
0.282277 0.218692 0.699382
0.39147 0.244282 0.717754
0.489815 0.287129 0.737301
0.56466 0.353735 0.764675
0.597589 0.445426 0.807095
0 0.230289 0.659739
0.00680552 0.235401 0.666682
0.0987564 0.244038 0.676829
0.205997 0.25716 0.689128
0.307683 0.277501 0.702678
0.40206 0.31017 0.719539
0.480125 0.360555 0.74313
0.527764 0.432151 0.778897
0.526177 0.523705 0.827466
0.00399786 0.311833 0.671717
0.0621347 0.317739 0.675441
0.145815 0.328237 0.681819
0.229496 0.346532 0.692958
0.307851 0.374792 0.709133
0.372808 0.416266 0.732754
0.412161 0.473701 0.766537
0.408743 0.547478 0.810712
0.363943 0.630869 0.860182
0 0.435233 0.686198
0 0.443748 0.692226
0.0309758 0.458366 0.702617
0.100496 0.482063 0.719448
0.146334 0.516442 0.743587
0.151675 0.562661 0.775692
0.0751507 0.621012 0.815808
0 0.685481 0.858213
0 0.75201 0.899855
0 0.606653 0.746426
0 0.616144 0.754131
0 0.632151 0.767071
0 0.657099 0.787106
0 0.690364 0.812924
0 0.730678 0.842939
0 0.776333 0.875563
0 0.825589 0.909499
0 0.876432 0.94374
0 0.796551 0.835935
0 0.804135 0.842206
0 0.81651 0.852338
0 0.835142 0.867338
0 0.859648 0.886702
0 0.889097 0.90956
0 0.922469 0.935073
0 0.958495 0.962219
0 0.996338 0.991485
0 0.965499 0.917617
0 0.970748 0.922225
0 0.979446 0.929534
0 0.992462 0.941176
0 1 0.955993
0 1 0.973617
0 1 0.993942
0 1 1
0 1 1
0 1 0.989303
0 1 0.992782
0 1 0.998535
0 1 1
0 1 1
0 1 1
0 1 1
0 1 1
0 1 1
0 0.18819 0.735973
0 0.194705 0.753429
0.0443275 0.204242 0.776104
0.166995 0.216617 0.799725
0.278691 0.232212 0.818738
0.381445 0.256245 0.833967
0.475105 0.294484 0.846006
0.547829 0.355306 0.866117
0.580026 0.44213 0.903609
0 0.225467 0.770291
0 0.230381 0.779797
0.0619974 0.237919 0.792157
0.183337 0.248966 0.805585
0.288075 0.266011 0.81857
0.385061 0.292775 0.829938
0.46923 0.335622 0.844709
0.527611 0.400351 0.870863
0.539895 0.488289 0.913985
0 0.276997 0.78587
0 0.281331 0.78999
0.0943923 0.289006 0.796048
0.199359 0.302113 0.804089
0.294072 0.322835 0.812985
0.377615 0.355703 0.826749
0.442115 0.405203 0.849042
0.47155 0.474586 0.885374
0.450248 0.561166 0.933745
0 0.354086 0.780865
0.00683604 0.360082 0.78407
0.0930037 0.370687 0.789807
0.182956 0.388785 0.799527
0.257771 0.416709 0.814527
0.31249 0.457435 0.83856
0.334417 0.513268 0.872999
0.305425 0.583719 0.91725
0.249104 0.659754 0.963317
0 0.474067 0.791516
0 0.482353 0.797635
0 0.496681 0.80824
0 0.519783 0.82533
0 0.553201 0.849836
0 0.59794 0.882475
0 0.652323 0.920913
0 0.711589 0.960662
0 0.773297 0.999985
0 0.639719 0.85301
0 0.648859 0.860838
0 0.664225 0.873823
0 0.687358 0.892805
0 0.718044 0.917098
0 0.755276 0.945373
0 0.797665 0.976318
0 0.843687 1
0 0.891325 1
0 0.818784 0.937881
0 0.825818 0.943786
0 0.837369 0.953475
0 0.85481 0.967803
0 0.877699 0.986236
0 0.905303 1
0 0.936599 1
0 0.970459 1
0 1 1
0 0.979309 1
0 0.984283 1
0 0.992447 1
0 1 1
0 1 1
0 1 1
0 1 1
0 1 1
0 1 1
0 1 1
0 1 1
0 1 1
0 1 1
0 1 1
0 1 1
0 1 1
0 1 1
0 1 1
0 0.253712 0.909056
0 0.258488 0.918547
0.0110628 0.265782 0.930358
0.141833 0.276814 0.942184
0.252964 0.292332 0.950256
0.351736 0.315511 0.953475
0.436454 0.352773 0.958602
0.493782 0.411643 0.977142
0.502571 0.494499 1
0 0.284566 0.92047
0 0.288624 0.925139
0.00988785 0.295567 0.931304
0.14197 0.306447 0.937255
0.251637 0.323033 0.941146
0.34609 0.348867 0.944228
0.420142 0.390906 0.955367
0.460334 0.453819 0.982376
0.448966 0.536904 1
0 0.330999 0.915618
0 0.335225 0.917342
0.00416571 0.342733 0.919615
0.134569 0.35523 0.921813
0.238132 0.375616 0.926528
0.317968 0.407996 0.937423
0.368521 0.456657 0.960266
0.374426 0.523461 0.997269
0.33753 0.60238 1
0 0.403342 0.894575
0 0.409171 0.897093
0 0.419776 0.901717
0.0397345 0.437415 0.910018
0.136522 0.465156 0.925521
0.184543 0.505226 0.950149
0.176226 0.55906 0.984955
0.0998856 0.623789 1
0 0.692393 1
0 0.518944 0.902907
0 0.527138 0.909133
0 0.541176 0.919875
0 0.563638 0.937118
0 0.595956 0.961868
0 0.638224 0.993683
0 0.687373 1
0 0.74136 1
0 0.797848 1
0 0.677775 0.965011
0 0.686259 0.972366
0 0.700145 0.984192
0 0.721309 1
0 0.749294 1
0 0.783413 1
0 0.822461 1
0 0.864897 1
0 0.909087 1
0 0.844297 1
0 0.850767 1
0 0.861433 1
0 0.877485 1
0 0.898665 1
0 0.924315 1
0 0.953384 1
0 0.985229 1
0 1 1
0 0.995697 1
0 1 1
0 1 1
0 1 1
0 1 1
0 1 1
0 1 1
0 1 1
0 1 1
0 1 1
0 1 1
0 1 1
0 1 1
0 1 1
0 1 1
0 1 1
0 1 1
0 1 1
